images/portal/4153.svg

<?xml version="1.0" standalone="no"?><!DOCTYPE svg PUBLIC "-//W3C//DTD SVG 1.1//EN" "http://www.w3.org/Graphics/SVG/1.1/DTD/svg11.dtd"><svg xmlns:xlink="http://www.w3.org/1999/xlink" version="1.1" class="highcharts-root" style="font-family:arial;font-size:12px;" xmlns="http://www.w3.org/2000/svg" width="485" height="415"><desc>Created with Highstock 5.0.14</desc><defs><clipPath id="highcharts-alxoxyw-6"><rect x="0" y="0" width="395" height="295" fill="none"></rect></clipPath><clipPath id="highcharts-alxoxyw-7"><rect x="0" y="0" width="395" height="295" fill="none"></rect></clipPath></defs><rect fill="#fbfbfb" class="highcharts-background" x="0" y="0" width="485" height="415" rx="0" ry="0"></rect><rect fill="none" class="highcharts-plot-background" x="80" y="41" width="395" height="295"></rect><g class="highcharts-pane-group"></g><g class="highcharts-grid highcharts-xaxis-grid "><path fill="none" class="highcharts-grid-line" d="M 112.5 41 L 112.5 336" opacity="1"></path><path fill="none" class="highcharts-grid-line" d="M 145.5 41 L 145.5 336" opacity="1"></path><path fill="none" class="highcharts-grid-line" d="M 178.5 41 L 178.5 336" opacity="1"></path><path fill="none" class="highcharts-grid-line" d="M 211.5 41 L 211.5 336" opacity="1"></path><path fill="none" class="highcharts-grid-line" d="M 244.5 41 L 244.5 336" opacity="1"></path><path fill="none" class="highcharts-grid-line" d="M 277.5 41 L 277.5 336" opacity="1"></path><path fill="none" class="highcharts-grid-line" d="M 309.5 41 L 309.5 336" opacity="1"></path><path fill="none" class="highcharts-grid-line" d="M 342.5 41 L 342.5 336" opacity="1"></path><path fill="none" class="highcharts-grid-line" d="M 375.5 41 L 375.5 336" opacity="1"></path><path fill="none" class="highcharts-grid-line" d="M 408.5 41 L 408.5 336" opacity="1"></path><path fill="none" class="highcharts-grid-line" d="M 441.5 41 L 441.5 336" opacity="1"></path><path fill="none" class="highcharts-grid-line" d="M 474.5 41 L 474.5 336" opacity="1"></path><path fill="none" class="highcharts-grid-line" d="M 79.5 41 L 79.5 336" opacity="1"></path></g><g class="highcharts-grid highcharts-yaxis-grid "><path fill="none" stroke="#B9CFD7" stroke-width="0.5" class="highcharts-grid-line" d="M 80 336.25 L 475 336.25" opacity="1"></path><path fill="none" stroke="#B9CFD7" stroke-width="0.5" class="highcharts-grid-line" d="M 80 287.25 L 475 287.25" opacity="1"></path><path fill="none" stroke="#B9CFD7" stroke-width="0.5" class="highcharts-grid-line" d="M 80 238.25 L 475 238.25" opacity="1"></path><path fill="none" stroke="#B9CFD7" stroke-width="0.5" class="highcharts-grid-line" d="M 80 189.25 L 475 189.25" opacity="1"></path><path fill="none" stroke="#B9CFD7" stroke-width="0.5" class="highcharts-grid-line" d="M 80 139.25 L 475 139.25" opacity="1"></path><path fill="none" stroke="#B9CFD7" stroke-width="0.5" class="highcharts-grid-line" d="M 80 90.25 L 475 90.25" opacity="1"></path><path fill="none" stroke="#B9CFD7" stroke-width="0.5" class="highcharts-grid-line" d="M 80 40.75 L 475 40.75" opacity="1"></path></g><rect fill="none" class="highcharts-plot-border" x="80" y="41" width="395" height="295"></rect><g class="highcharts-axis highcharts-xaxis "><path fill="none" class="highcharts-axis-line" stroke="#B9CFD7" stroke-width="0.5" d="M 80 336.25 L 475 336.25"></path></g><g class="highcharts-axis highcharts-yaxis "><path fill="none" class="highcharts-axis-line" d="M 80 41 L 80 336"></path></g><g class="highcharts-series-group"><g class="highcharts-series highcharts-series-0 highcharts-line-series highcharts-color-undefined " transform="translate(80,41) scale(1 1)" clip-path="url(#highcharts-alxoxyw-7)"><path fill="none" d="M 16.458333333333 272.8904875 L 49.375 276.5113420833333 L 82.291666666667 281.0131895833333 L 115.20833333333 280.62484666666666 L 148.125 247.38259958333333 L 181.04166666667 218.4340775 L 213.95833333333 190.42154125000002 L 246.875 167.63416791666668 L 279.79166666667 96.21375833333335 L 312.70833333333 75.86074958333333 L 345.625 60.82838541666666 L 378.54166666667 46.37790875000002" class="highcharts-graph" stroke="#923f8d" stroke-width="2" stroke-linejoin="round" stroke-linecap="round"></path></g><g class="highcharts-markers highcharts-series-0 highcharts-line-series highcharts-color-undefined " transform="translate(80,41) scale(1 1)" clip-path="none"><path fill="#923f8d" d="M 20 273 A 4 4 0 1 1 19.99999800000017 272.99600000066664 Z" class="highcharts-point"></path><path fill="#923f8d" d="M 53 277 A 4 4 0 1 1 52.99999800000017 276.99600000066664 Z" class="highcharts-point"></path><path fill="#923f8d" d="M 86 281 A 4 4 0 1 1 85.99999800000016 280.99600000066664 Z" class="highcharts-point"></path><path fill="#923f8d" d="M 119 281 A 4 4 0 1 1 118.99999800000016 280.99600000066664 Z" class="highcharts-point"></path><path fill="#923f8d" d="M 152 247 A 4 4 0 1 1 151.99999800000018 246.99600000066667 Z" class="highcharts-point"></path><path fill="#923f8d" d="M 185 218 A 4 4 0 1 1 184.99999800000018 217.99600000066667 Z" class="highcharts-point"></path><path fill="#923f8d" d="M 217 190 A 4 4 0 1 1 216.99999800000018 189.99600000066667 Z" class="highcharts-point"></path><path fill="#923f8d" d="M 250 168 A 4 4 0 1 1 249.99999800000018 167.99600000066667 Z" class="highcharts-point"></path><path fill="#923f8d" d="M 283 96 A 4 4 0 1 1 282.9999980000002 95.99600000066667 Z" class="highcharts-point"></path><path fill="#923f8d" d="M 316 76 A 4 4 0 1 1 315.9999980000002 75.99600000066667 Z" class="highcharts-point"></path><path fill="#923f8d" d="M 349 61 A 4 4 0 1 1 348.9999980000002 60.99600000066666 Z" class="highcharts-point"></path><path fill="#923f8d" d="M 382 46 A 4 4 0 1 1 381.9999980000002 45.99600000066666 Z" class="highcharts-point"></path></g></g><text x="10" text-anchor="start" class="highcharts-title" style="color:#000000;font-size:14px;font-weight:bold;fill:#000000;" y="21"><tspan>Ausbezahlte Familienmietzinsbeiträge</tspan></text><g class="highcharts-data-labels highcharts-series-0 highcharts-line-series highcharts-color-undefined " visibility="visible" transform="translate(80,41) scale(1 1)"><g class="highcharts-label highcharts-data-label highcharts-data-label-color-undefined " transform="translate(-5,250)"><text x="5" style="font-size:11px;font-weight:bold;color:#000000;fill:#000000;" y="16"><tspan x="5" y="16" class="highcharts-text-outline" fill="#FFFFFF" stroke="#FFFFFF" stroke-width="2px" stroke-linejoin="round" style="">899 370</tspan><tspan x="5" y="16">899 370</tspan></text></g><g class="highcharts-label highcharts-data-label highcharts-data-label-color-undefined " transform="translate(335,23)"><text x="5" style="font-size:11px;font-weight:bold;color:#000000;fill:#000000;" y="16"><tspan x="5" y="16" class="highcharts-text-outline" fill="#FFFFFF" stroke="#FFFFFF" stroke-width="2px" stroke-linejoin="round">10 113 441</tspan><tspan x="5" y="16">10 113 441</tspan></text></g></g><g class="highcharts-axis-labels highcharts-xaxis-labels "><text x="99.051058197684" style="color:#000000;cursor:default;font-size:11px;fill:#000000;" text-anchor="end" transform="translate(0,0) rotate(-45 99.051058197684 352)" y="352" opacity="1"><tspan>2005</tspan></text><text x="131.96772486435066" style="color:#000000;cursor:default;font-size:11px;fill:#000000;" text-anchor="end" transform="translate(0,0) rotate(-45 131.96772486435066 352)" y="352" opacity="1"><tspan>2006</tspan></text><text x="164.88439153101734" style="color:#000000;cursor:default;font-size:11px;fill:#000000;" text-anchor="end" transform="translate(0,0) rotate(-45 164.88439153101734 352)" y="352" opacity="1"><tspan>2007</tspan></text><text x="197.801058197684" style="color:#000000;cursor:default;font-size:11px;fill:#000000;" text-anchor="end" transform="translate(0,0) rotate(-45 197.801058197684 352)" y="352" opacity="1"><tspan>2008</tspan></text><text x="230.71772486435069" style="color:#000000;cursor:default;font-size:11px;fill:#000000;" text-anchor="end" transform="translate(0,0) rotate(-45 230.71772486435069 352)" y="352" opacity="1"><tspan>2009</tspan></text><text x="263.63439153101734" style="color:#000000;cursor:default;font-size:11px;fill:#000000;" text-anchor="end" transform="translate(0,0) rotate(-45 263.63439153101734 352)" y="352" opacity="1"><tspan>2010</tspan></text><text x="296.551058197684" style="color:#000000;cursor:default;font-size:11px;fill:#000000;" text-anchor="end" transform="translate(0,0) rotate(-45 296.551058197684 352)" y="352" opacity="1"><tspan>2011</tspan></text><text x="329.46772486435066" style="color:#000000;cursor:default;font-size:11px;fill:#000000;" text-anchor="end" transform="translate(0,0) rotate(-45 329.46772486435066 352)" y="352" opacity="1"><tspan>2012</tspan></text><text x="362.3843915310173" style="color:#000000;cursor:default;font-size:11px;fill:#000000;" text-anchor="end" transform="translate(0,0) rotate(-45 362.3843915310173 352)" y="352" opacity="1"><tspan>2013</tspan></text><text x="395.301058197684" style="color:#000000;cursor:default;font-size:11px;fill:#000000;" text-anchor="end" transform="translate(0,0) rotate(-45 395.301058197684 352)" y="352" opacity="1"><tspan>2014</tspan></text><text x="428.21772486435066" style="color:#000000;cursor:default;font-size:11px;fill:#000000;" text-anchor="end" transform="translate(0,0) rotate(-45 428.21772486435066 352)" y="352" opacity="1"><tspan>2015</tspan></text><text x="461.1343915310173" style="color:#000000;cursor:default;font-size:11px;fill:#000000;" text-anchor="end" transform="translate(0,0) rotate(-45 461.1343915310173 352)" y="352" opacity="1"><tspan>2016</tspan></text></g><g class="highcharts-axis-labels highcharts-yaxis-labels "><text x="65" style="color:#000000;cursor:default;font-size:11px;fill:#000000;" text-anchor="end" transform="translate(0,0)" y="341" opacity="1"><tspan>0</tspan></text><text x="65" style="color:#000000;cursor:default;font-size:11px;fill:#000000;" text-anchor="end" transform="translate(0,0)" y="291" opacity="1"><tspan>2 000 000</tspan></text><text x="65" style="color:#000000;cursor:default;font-size:11px;fill:#000000;" text-anchor="end" transform="translate(0,0)" y="242" opacity="1"><tspan>4 000 000</tspan></text><text x="65" style="color:#000000;cursor:default;font-size:11px;fill:#000000;" text-anchor="end" transform="translate(0,0)" y="193" opacity="1"><tspan>6 000 000</tspan></text><text x="65" style="color:#000000;cursor:default;font-size:11px;fill:#000000;" text-anchor="end" transform="translate(0,0)" y="144" opacity="1"><tspan>8 000 000</tspan></text><text x="65" style="color:#000000;cursor:default;font-size:11px;fill:#000000;" text-anchor="end" transform="translate(0,0)" y="95" opacity="1"><tspan>10 000 000</tspan></text><text x="65" style="color:#000000;cursor:default;font-size:11px;fill:#000000;" text-anchor="end" transform="translate(0,0)" y="46" opacity="1"><tspan>12 000 000</tspan></text></g><text x="10" class="highcharts-credits" text-anchor="start" style="cursor:default;color:#000000;font-size:10px;fill:#000000;" y="400"><tspan>Quelle: Statistisches Amt Basel-Stadt, Amt für Sozialbeiträge Basel-Stadt</tspan></text></svg>

<svg class="highcharts-root" xmlns="http://www.w3.org/2000/svg" width="485" height="415" font-family="arial" font-size="12">
    <defs>
        <clipPath id="a">
            <path fill="none" d="M0 0h395v295H0z"/>
        </clipPath>
    </defs>
    <rect fill="#fbfbfb" class="highcharts-background" width="485" height="415" rx="0" ry="0"/>
    <path fill="none" class="highcharts-plot-background" d="M80 41h395v295H80z"/>
    <g class="highcharts-grid highcharts-xaxis-grid">
        <path fill="none" class="highcharts-grid-line" d="M112.5 41v295m33-295v295m33-295v295m33-295v295m33-295v295m33-295v295m32-295v295m33-295v295m33-295v295m33-295v295m33-295v295m33-295v295M79.5 41v295"/>
    </g>
    <g class="highcharts-grid highcharts-yaxis-grid">
        <path fill="none" stroke="#B9CFD7" stroke-width=".5" class="highcharts-grid-line" d="M80 336.25h395m-395-49h395m-395-49h395m-395-49h395m-395-50h395m-395-49h395M80 40.75h395"/>
    </g>
    <path fill="none" class="highcharts-plot-border" d="M80 41h395v295H80z"/>
    <g class="highcharts-axis highcharts-xaxis">
        <path fill="none" class="highcharts-axis-line" stroke="#B9CFD7" stroke-width=".5" d="M80 336.25h395"/>
    </g>
    <g class="highcharts-axis highcharts-yaxis">
        <path fill="none" class="highcharts-axis-line" d="M80 41v295"/>
    </g>
    <g class="highcharts-series-group">
        <g class="highcharts-series highcharts-series-0 highcharts-line-series highcharts-color-undefined" transform="translate(80 41)" clip-path="url(#a)">
            <path fill="none" d="M16.458 272.89l32.917 3.621 32.917 4.502 32.916-.388 32.917-33.242 32.917-28.949 32.916-28.012 32.917-22.788 32.917-71.42 32.916-20.353 32.917-15.033 32.917-14.45" class="highcharts-graph" stroke="#923f8d" stroke-width="2" stroke-linejoin="round" stroke-linecap="round"/>
        </g>
        <g class="highcharts-markers highcharts-series-0 highcharts-line-series highcharts-color-undefined">
            <path fill="#923f8d" d="M100 314a4 4 0 1 1 0-.004zm33 4a4 4 0 1 1 0-.004zm33 4a4 4 0 1 1 0-.004zm33 0a4 4 0 1 1 0-.004zm33-34a4 4 0 1 1 0-.004zm33-29a4 4 0 1 1 0-.004zm32-28a4 4 0 1 1 0-.004zm33-22a4 4 0 1 1 0-.004zm33-72a4 4 0 1 1 0-.004zm33-20a4 4 0 1 1 0-.004zm33-15a4 4 0 1 1 0-.004zm33-15a4 4 0 1 1 0-.004z" class="highcharts-point"/>
        </g>
    </g>
    <text x="10" class="highcharts-title" y="21" color="#000" font-size="14" font-weight="700">
        <tspan>Ausbezahlte Familienmietzinsbeiträge</tspan>
    </text>
    <g class="highcharts-data-labels highcharts-series-0 highcharts-line-series highcharts-color-undefined">
        <text x="5" y="16" font-size="11" font-weight="700" color="#000" transform="translate(75 291)" class="highcharts-label highcharts-data-label highcharts-data-label-color-undefined">
            <tspan x="5" y="16" class="highcharts-text-outline" fill="#FFF" stroke="#FFF" stroke-width="2" stroke-linejoin="round">899 370</tspan><tspan x="5" y="16">899 370</tspan>
        </text>
        <text x="5" y="16" font-size="11" font-weight="700" color="#000" transform="translate(415 64)" class="highcharts-label highcharts-data-label highcharts-data-label-color-undefined">
            <tspan x="5" y="16" class="highcharts-text-outline" fill="#FFF" stroke="#FFF" stroke-width="2" stroke-linejoin="round">10 113 441</tspan><tspan x="5" y="16">10 113 441</tspan>
        </text>
    </g>
    <g class="highcharts-axis-labels highcharts-xaxis-labels" text-anchor="end" color="#000" cursor="default" font-size="11">
        <text x="99.051" transform="rotate(-45 99.051 352)" y="352">
            <tspan>2005</tspan>
        </text>
        <text x="131.968" transform="rotate(-45 131.968 352)" y="352">
            <tspan>2006</tspan>
        </text>
        <text x="164.884" transform="rotate(-45 164.884 352)" y="352">
            <tspan>2007</tspan>
        </text>
        <text x="197.801" transform="rotate(-45 197.801 352)" y="352">
            <tspan>2008</tspan>
        </text>
        <text x="230.718" transform="rotate(-45 230.718 352)" y="352">
            <tspan>2009</tspan>
        </text>
        <text x="263.634" transform="rotate(-45 263.634 352)" y="352">
            <tspan>2010</tspan>
        </text>
        <text x="296.551" transform="rotate(-45 296.551 352)" y="352">
            <tspan>2011</tspan>
        </text>
        <text x="329.468" transform="rotate(-45 329.468 352)" y="352">
            <tspan>2012</tspan>
        </text>
        <text x="362.384" transform="rotate(-45 362.384 352)" y="352">
            <tspan>2013</tspan>
        </text>
        <text x="395.301" transform="rotate(-45 395.301 352)" y="352">
            <tspan>2014</tspan>
        </text>
        <text x="428.218" transform="rotate(-45 428.218 352)" y="352">
            <tspan>2015</tspan>
        </text>
        <text x="461.134" transform="rotate(-45 461.134 352)" y="352">
            <tspan>2016</tspan>
        </text>
    </g>
    <g class="highcharts-axis-labels highcharts-yaxis-labels" text-anchor="end" color="#000" cursor="default" font-size="11">
        <text x="65" y="341">
            <tspan>0</tspan>
        </text>
        <text x="65" y="291">
            <tspan>2 000 000</tspan>
        </text>
        <text x="65" y="242">
            <tspan>4 000 000</tspan>
        </text>
        <text x="65" y="193">
            <tspan>6 000 000</tspan>
        </text>
        <text x="65" y="144">
            <tspan>8 000 000</tspan>
        </text>
        <text x="65" y="95">
            <tspan>10 000 000</tspan>
        </text>
        <text x="65" y="46">
            <tspan>12 000 000</tspan>
        </text>
    </g>
    <text x="10" class="highcharts-credits" y="400" cursor="default" color="#000" font-size="10">
        <tspan>Quelle: Statistisches Amt Basel-Stadt, Amt für Sozialbeiträge Basel-Stadt</tspan>
    </text>
</svg>
